apps/trade/public/tokens/atom.svg

<svg width="24" height="25" viewBox="0 0 24 25" fill="none" xmlns="http://www.w3.org/2000/svg">
<g clip-path="url(#clip0_1233_14884)">
<path d="M12 24.5C18.6274 24.5 24 19.1274 24 12.5C24 5.87258 18.6274 0.5 12 0.5C5.37258 0.5 0 5.87258 0 12.5C0 19.1274 5.37258 24.5 12 24.5Z" fill="#2E3148"/>
<path d="M12.0001 19.4631C15.8456 19.4631 18.9631 16.3456 18.9631 12.5001C18.9631 8.65454 15.8456 5.53711 12.0001 5.53711C8.15454 5.53711 5.03711 8.65454 5.03711 12.5001C5.03711 16.3456 8.15454 19.4631 12.0001 19.4631Z" fill="#1B1E36"/>
<path d="M12.0254 2.03125C10.73 2.03125 9.67969 6.72949 9.67969 12.5251C9.67969 18.3207 10.73 23.019 12.0254 23.019C13.3207 23.019 14.371 18.3207 14.371 12.5251C14.371 6.72949 13.3207 2.03125 12.0254 2.03125ZM12.1873 22.4267C12.0392 22.6243 11.891 22.4761 11.891 22.4761C11.2945 21.7849 10.9962 20.5008 10.9962 20.5008C9.95281 17.1428 10.2012 9.93291 10.2012 9.93291C10.6915 4.20901 11.5836 2.85685 11.8871 2.55666C11.9181 2.52602 11.9589 2.5073 12.0024 2.50379C12.0458 2.50027 12.0891 2.5122 12.1246 2.53746C12.5651 2.84955 12.9345 4.15477 12.9345 4.15477C14.0253 8.20415 13.9265 12.0066 13.9265 12.0066C14.0253 15.3152 13.3799 19.0189 13.3799 19.0189C12.8831 21.8336 12.1873 22.4267 12.1873 22.4267Z" fill="#6F7390"/>
<path d="M21.1261 7.30198C20.4812 6.17801 15.8837 7.60515 10.8541 10.4892C5.82461 13.3732 2.27683 16.6225 2.92128 17.746C3.56573 18.8695 8.16375 17.4428 13.1933 14.5588C18.2228 11.6748 21.7706 8.42547 21.1261 7.30198ZM3.51629 17.5918C3.26938 17.5607 3.32515 17.3578 3.32515 17.3578C3.62803 16.4966 4.59187 15.5988 4.59187 15.5988C6.9864 13.0225 13.3643 9.65014 13.3643 9.65014C18.5726 7.22691 20.1904 7.32915 20.6008 7.44214C20.643 7.4539 20.6796 7.48019 20.7042 7.51635C20.7288 7.55251 20.7398 7.59621 20.7352 7.63971C20.6859 8.17731 19.7352 9.14691 19.7352 9.14691C16.7677 12.1094 13.42 13.9163 13.42 13.9163C10.5993 15.6491 7.06551 16.9316 7.06551 16.9316C4.37664 17.9005 3.51639 17.5918 3.51639 17.5918H3.51629Z" fill="#6F7390"/>
<path d="M21.1049 17.7841C21.7549 16.6631 18.216 13.3989 13.2041 10.4932C8.19227 7.58743 3.59532 6.14263 2.94597 7.26555C2.29663 8.38846 5.8349 11.6507 10.8497 14.5565C15.8644 17.4622 20.4556 18.9071 21.1049 17.7841ZM3.37663 7.6987C3.28063 7.47108 3.48328 7.41627 3.48328 7.41627C4.3805 7.24683 5.64079 7.63294 5.64079 7.63294C9.06943 8.41371 15.1832 12.2433 15.1832 12.2433C19.8904 15.5372 20.6123 16.988 20.7205 17.3999C20.7315 17.4421 20.7272 17.4869 20.7084 17.5263C20.6896 17.5657 20.6575 17.5972 20.6177 17.6152C20.1269 17.8399 18.8123 17.5051 18.8123 17.5051C14.7604 16.4187 11.5199 14.4281 11.5199 14.4281C8.60834 12.8577 5.7293 10.4414 5.7293 10.4414C3.54165 8.59947 3.3773 7.70119 3.3773 7.70119L3.37663 7.6987Z" fill="#6F7390"/>
<path d="M12.0002 13.7347C12.682 13.7347 13.2347 13.182 13.2347 12.5002C13.2347 11.8184 12.682 11.2656 12.0002 11.2656C11.3184 11.2656 10.7656 11.8184 10.7656 12.5002C10.7656 13.182 11.3184 13.7347 12.0002 13.7347Z" fill="#B7B9C8"/>
<path d="M17.0618 8.50003C17.4572 8.50003 17.7778 8.16839 17.7778 7.75929C17.7778 7.35019 17.4572 7.01855 17.0618 7.01855C16.6663 7.01855 16.3457 7.35019 16.3457 7.75929C16.3457 8.16839 16.6663 8.50003 17.0618 8.50003Z" fill="#B7B9C8"/>
<path d="M5.30786 11.0186C5.70333 11.0186 6.02392 10.6869 6.02392 10.2778C6.02392 9.86875 5.70333 9.53711 5.30786 9.53711C4.91239 9.53711 4.5918 9.86875 4.5918 10.2778C4.5918 10.6869 4.91239 11.0186 5.30786 11.0186Z" fill="#B7B9C8"/>
<path d="M10.5422 20.1055C10.9377 20.1055 11.2583 19.7739 11.2583 19.3648C11.2583 18.9557 10.9377 18.624 10.5422 18.624C10.1468 18.624 9.82617 18.9557 9.82617 19.3648C9.82617 19.7739 10.1468 20.1055 10.5422 20.1055Z" fill="#B7B9C8"/>
</g>
<defs>
<clipPath id="clip0_1233_14884">
<rect width="24" height="24" fill="white" transform="translate(0 0.5)"/>
</clipPath>
</defs>
</svg>

<svg width="24" height="25" fill="none" xmlns="http://www.w3.org/2000/svg">
    <g clip-path="url(#a)">
        <path d="M12 24.5c6.627 0 12-5.373 12-12S18.627.5 12 .5 0 5.873 0 12.5s5.373 12 12 12Z" fill="#2E3148"/>
        <path d="M12 19.463a6.963 6.963 0 1 0 0-13.926 6.963 6.963 0 0 0 0 13.926Z" fill="#1B1E36"/>
        <path d="M12.025 2.031c-1.295 0-2.345 4.698-2.345 10.494 0 5.796 1.05 10.494 2.345 10.494 1.296 0 2.346-4.698 2.346-10.494 0-5.796-1.05-10.494-2.346-10.494Zm.162 20.396c-.148.197-.296.05-.296.05-.597-.692-.895-1.976-.895-1.976-1.043-3.358-.795-10.568-.795-10.568.49-5.724 1.383-7.076 1.686-7.376a.185.185 0 0 1 .238-.02c.44.313.81 1.618.81 1.618 1.09 4.05.992 7.852.992 7.852.098 3.308-.547 7.012-.547 7.012-.497 2.815-1.193 3.408-1.193 3.408Z" fill="#6F7390"/>
        <path d="M21.126 7.302c-.645-1.124-5.242.303-10.272 3.187s-8.577 6.133-7.933 7.257c.645 1.123 5.243-.303 10.272-3.187 5.03-2.884 8.578-6.134 7.933-7.257Zm-17.61 10.29c-.247-.031-.19-.234-.19-.234.302-.861 1.266-1.76 1.266-1.76 2.394-2.575 8.772-5.948 8.772-5.948 5.209-2.423 6.826-2.32 7.237-2.208a.185.185 0 0 1 .134.198c-.05.537-1 1.507-1 1.507-2.967 2.962-6.315 4.77-6.315 4.77-2.82 1.732-6.354 3.015-6.354 3.015-2.69.969-3.55.66-3.55.66Z" fill="#6F7390"/>
        <path d="M21.105 17.784c.65-1.12-2.889-4.385-7.9-7.29-5.013-2.907-9.61-4.351-10.259-3.228-.65 1.122 2.889 4.385 7.904 7.29 5.014 2.906 9.606 4.351 10.255 3.228ZM3.377 7.7c-.096-.228.106-.283.106-.283.897-.17 2.158.217 2.158.217 3.428.78 9.542 4.61 9.542 4.61 4.707 3.294 5.43 4.745 5.538 5.157a.185.185 0 0 1-.103.215c-.491.225-1.806-.11-1.806-.11-4.052-1.086-7.292-3.077-7.292-3.077-2.912-1.57-5.79-3.987-5.79-3.987-2.188-1.842-2.353-2.74-2.353-2.74V7.7Z" fill="#6F7390"/>
        <path d="M12 13.735a1.234 1.234 0 1 0 0-2.47 1.234 1.234 0 0 0 0 2.47ZM17.062 8.5a.729.729 0 0 0 .716-.74c0-.41-.32-.741-.716-.741a.729.729 0 0 0-.716.74c0 .41.32.741.716.741ZM5.308 11.019a.729.729 0 0 0 .716-.741c0-.41-.32-.74-.716-.74a.729.729 0 0 0-.716.74c0 .409.32.74.716.74ZM10.542 20.105a.729.729 0 0 0 .716-.74c0-.41-.32-.741-.716-.741a.729.729 0 0 0-.716.74c0 .41.32.741.716.741Z" fill="#B7B9C8"/>
    </g>
    <defs>
        <clipPath id="a">
            <path fill="#fff" d="M0 .5h24v24H0z"/>
        </clipPath>
    </defs>
</svg>
